X:1
T:Branle gay
C:Michael Praetorius, 1612
Z:Bert Van Vreckem <bert.vanvreckem@gmail.com> 2004-12-30
M:3/4
L:1/4
Q:1/4=190
K:C
cAB | c2c | efd | e2e | dcA | B3/2 G/ A/B/ | ccB | c2 z :|
w:g+ g\- g+ g\- sm\- g+ g\- g+ g\- sm\- ... **********
edc | B2B | dcB | A2A | cBA | B2B | BAG | F3/2 G/ A | GGF | G2 z ||
GAB | c3/2 e/ d | ccB | c2z | GAB | c3/2 e/ d | ccB | c2 z ||
